X:1
T:See See Rider
C:Gertrude "Ma" Rainey (1925)
M:4/4
L:1/4
Q:1/4=120
K:Bbmaj
c |: "Bb" d3 c | B/2 F3 z/2| d c B F | "Bb7" _A3 z/2 ^F/2|
w:Oh, See see rid-er, See what you have done. You
"Eb" Gc/2 B E3/2| G c B G| "Bb" F4-|F2z d/2d/2|
w:made me love you, now your gal has come. _ You _
"F7" d c A F | E/2F/2A/2c/2 d c | "Bb" B4-|B2 z2:|
w:made me love you, now your re-al gal has come.
